resources/svg/regular/border-inner.svg

<svg xmlns="http://www.w3.org/2000/svg" fill="currentColor" stroke="none" viewBox="0 0 24 24"><path d="M19 19h2v2h-2zM7 19h2v2H7zm8 0h2v2h-2zM3 19h2v2H3zm0-4h2v2H3zm0-8h2v2H3zm0-4h2v2H3zm12 0h2v2h-2zM7 3h2v2H7zm12 0h2v2h-2zm0 12h2v2h-2zm0-8h2v2h-2z"/><path d="M5 13h6v8h2v-8h8v-2h-8V3h-2v8H3v2h1.93z"/></svg>

<svg xmlns="http://www.w3.org/2000/svg" fill="currentColor" stroke="none" viewBox="0 0 24 24"><path d="M19 19H21V21H19zM7 19H9V21H7zM15 19H17V21H15zM3 19H5V21H3zM3 15H5V17H3zM3 7H5V9H3zM3 3H5V5H3zM15 3H17V5H15zM7 3H9V5H7zM19 3H21V5H19zM19 15H21V17H19zM19 7H21V9H19z"/><path d="M5 13L11 13 11 19 11 19.071 11 21 13 21 13 19.071 13 19 13 13 19 13 19.07 13 21 13 21 11 19.07 11 19 11 13 11 13 5 13 4.929 13 3 11 3 11 4.929 11 5 11 11 5 11 4.93 11 3 11 3 13 4.93 13z"/></svg>
